src/resources/svg/icons/error-triangle.svg

<svg fill="none" viewBox="0 0 39 34" xmlns="http://www.w3.org/2000/svg">
    <path d="m37.744 28.98c1.2017 2.0829-0.3067 4.6866-2.7069 4.6866h-31.243c-2.4048 0-3.9062-2.6077-2.7068-4.6866l15.622-27.085c1.2023-2.0839 4.2135-2.0801 5.4137 0l15.621 27.085zm-18.328-5.5998c-1.6539 0-2.9948 1.3408-2.9948 2.9948 0 1.6539 1.3409 2.9948 2.9948 2.9948 1.654 0 2.9948-1.3409 2.9948-2.9948 0-1.654-1.3408-2.9948-2.9948-2.9948zm-2.8433-10.765 0.483 8.8541c0.0226 0.4143 0.3651 0.7387 0.78 0.7387h3.1606c0.4149 0 0.7575-0.3244 0.7801-0.7387l0.4829-8.8541c0.0244-0.4476-0.3319-0.8239-0.7801-0.8239h-4.1265c-0.4481 0-0.8044 0.3763-0.78 0.8239z" fill="currentColor"/>
</svg>

<svg width="39" height="34" viewBox="0 0 39 34" xmlns="http://www.w3.org/2000/svg">
    <path fill="#FF4339"
          d="M37.7445 28.9802C38.9462 31.0631 37.4378 33.6668 35.0376 33.6668H3.79504C1.39029 33.6668 -0.111147 31.0591 1.0882 28.9802L16.7097 1.89502C17.912 -0.188899 20.9232 -0.185123 22.1234 1.89502L37.7445 28.9802ZM19.4165 23.3804C17.7626 23.3804 16.4217 24.7212 16.4217 26.3752C16.4217 28.0291 17.7626 29.37 19.4165 29.37C21.0705 29.37 22.4113 28.0291 22.4113 26.3752C22.4113 24.7212 21.0705 23.3804 19.4165 23.3804ZM16.5732 12.6157L17.0562 21.4698C17.0788 21.8841 17.4213 22.2085 17.8362 22.2085H20.9968C21.4117 22.2085 21.7543 21.8841 21.7769 21.4698L22.2598 12.6157C22.2842 12.1681 21.9279 11.7918 21.4797 11.7918H17.3532C16.9051 11.7918 16.5488 12.1681 16.5732 12.6157Z"/>
</svg>
